X: 73
T:The Punks Delight
M:4/4
L:1/8
Q:120
K:D
A>AA>A A2F2|G>BA>G d2B2|A>Bc>c f2F2|G>BA>G d2B2|A>FD>B A>FD>D|G>BA>G d2B
2
|A>FD>B A>FD>D|G>BA>G d2B2||

